X:2600
T:Capitains Courageous  - schottische/schottisch/scottish
C:Nigel Eaton
D:transkription CD "Spin"
G:Whirling pope Joan
Z:abc transcription Simon Wascher
N:please mail errors to: simon.wascher@chello.at
M:2/4
L:1/16
K:Cm
ecde c2B=B|cag^f gede|_gede c=BcA|G=BcAG4|
ecde c2B=B|cag^f gede|_gede c=BcA|G=BcAG4:|
K:C
|:gefg e3f|gefg e2de|fdec B3c|dBcG B2ef|
gefg e3f|gefg e2ag|a d3 bab f-|f c'2c'c'4:|


